X: 1944
T: Arrane Y Chlean
R: waltz
M: 3/4
K: Dmajor
DE|:"D"F4 ED|"G"E2 F2 G2|"D"F2 E2 D2|"Am"E4 DE|
"D"F4 ED|"G"E2 F2 G2|"D"F2 E2 D2|1 "C" =C4 DE:|2 "D" D3A AB||
|:"Am"=c4 BA|"G"{B=c}B2 A2 DE|"D"F2 D2 FD|"C" =C4 AB|
"Am"=c4 BA|1 "G"{B=c}B2 A2 DE|"D"F3A ~=c2|d4 AB:|
[2"G"d2 B2 G2|"C"E2 D2 =C2|"D" D4||

